packages/icons/src/emoji/svg/recycle.svg

<svg width="120" height="120" viewBox="0 0 120 120" fill="none" xmlns="http://www.w3.org/2000/svg">
<path d="M52.3128 8.79366C53.016 9.66554 53.8785 10.4812 54.6097 11.3437C55.7454 12.6656 56.8396 14.0225 57.891 15.4124C60.3285 18.6093 62.916 21.6749 65.5316 24.7218C67.4253 26.9343 69.4597 28.9687 71.4097 31.1249C72.4035 32.2218 73.8941 33.7687 73.7066 35.3905C73.5941 36.2999 72.7597 36.7968 72.141 37.3874C71.2597 38.2124 70.2847 38.8593 69.5254 39.8062C68.7566 40.7812 67.4816 41.5687 67.2097 42.853C66.966 43.978 68.3347 44.9249 69.291 45.2155C70.1441 45.478 71.0535 45.7218 71.9347 45.8905C77.9816 47.0155 84.4597 47.4187 90.6097 47.4655C92.3816 47.4749 94.2003 47.6718 95.8503 46.8843C96.7597 46.453 97.7535 45.5718 97.9222 44.5218C98.8316 38.8124 100.369 33.0655 101.166 27.3937C101.391 25.8187 101.916 23.8593 101.372 22.303C100.707 20.428 98.5504 20.8593 97.0972 21.4124C96.366 21.6937 95.6816 22.0968 94.9972 22.4624C94.3879 22.7905 93.7597 23.3437 93.1035 23.5312C91.7441 23.9437 90.5628 22.6968 89.7847 21.7687C88.5003 20.2499 87.4129 18.4874 86.2972 16.828C83.9254 13.303 81.5628 9.55304 78.4785 6.60929C77.9816 6.13116 77.2972 6.09366 76.6504 5.95304C74.8035 5.55929 72.8816 5.71866 71.016 5.71866H60.9566C59.3722 5.71866 57.7222 5.62491 56.1753 5.79366C55.0972 5.90616 53.316 5.68116 52.4253 6.43116C51.7878 6.97491 51.7785 8.10929 52.2753 8.73741C52.2753 8.75616 52.2941 8.77491 52.3128 8.79366Z" fill="#757F3F"/>
<path d="M55.5469 18.4874C52.8656 15.5812 50.0156 12.8718 46.8938 10.4531C45.7313 9.55307 45.1313 8.78432 43.5188 8.80307C41.7656 8.84057 40.3875 10.4718 39.3188 11.9812C36.8156 15.4781 34.4906 19.0968 32.1 22.6687C30.4688 25.1062 27.6656 28.0406 27.9188 31.1906C28.1531 34.0218 32.7469 36.6656 34.7531 38.2218C37.95 40.7062 41.2594 43.0781 44.8031 45.0374C45.9094 45.6562 47.1938 44.9999 48.0094 44.2124C50.8406 41.4843 53.0438 38.1937 55.2938 34.9968C57.0188 32.5218 60.7594 29.2312 60.9188 26.0906C61.0594 23.2499 57.3094 20.3999 55.5469 18.4874ZM29.5594 66.1031C31.6875 63.9656 36.5438 69.3656 39.4781 67.2937C41.7281 65.7187 39.4875 61.3499 38.8125 59.4749C37.4531 55.6687 36.0469 51.8812 34.2563 48.2624C32.7094 45.1406 30.4313 39.9562 26.2781 39.9468C23.4656 39.9468 20.8875 41.3156 18.2344 42.0187C13.7438 43.2093 9.26251 44.6812 5.20313 46.9968C4.59376 47.3343 4.04063 47.7843 3.76876 48.4499C3.23438 49.7624 4.65938 51.1499 5.55001 51.8624C6.47813 52.6124 7.57501 53.2593 8.61563 53.8499C9.42188 54.3187 10.2563 54.7406 10.2938 55.8093C10.3406 56.9062 9.58126 58.2656 9.02813 59.1937C8.11876 60.6937 7.48126 62.3156 6.85313 63.9281C5.56876 67.2749 3.52501 70.4249 2.59688 73.9031C1.57501 77.6906 4.35001 81.0749 6.07501 84.2062C8.10001 87.8999 9.98438 91.7062 12.4969 95.1093C13.2188 96.0843 14.1188 97.6687 15.1781 98.3906C15.7125 98.7562 16.3406 97.9499 16.8844 96.8906C17.5219 95.6624 18.0469 94.1156 18.1875 93.8156C20.8875 87.6468 22.7813 81.1593 25.6219 75.0562C26.8969 72.2812 27.3656 68.3062 29.5594 66.1031Z" fill="#757F3F"/>
<path d="M44.6808 82.0406C40.6402 81.4968 36.5902 81.1406 32.5402 80.7281C31.3777 80.6062 29.4933 80.1187 28.387 80.4937C27.2433 80.8875 26.7558 81.9375 26.1558 82.9031C24.9652 84.8531 24.337 87.1687 23.4839 89.3437C22.4052 92.0974 21.5921 94.9478 21.0558 97.8562C20.7933 99.2906 20.6245 100.716 20.4839 102.159C20.362 103.369 20.3058 104.381 21.2808 105.347C22.3027 106.341 24.4402 106.566 26.2683 106.669C31.7433 106.969 37.2277 107.287 42.712 107.475C44.662 107.531 46.9308 107.962 48.6745 106.866C49.6308 106.256 49.7339 104.737 49.9402 103.734C50.5964 100.378 51.0933 96.9843 51.4777 93.5812C51.6652 91.8937 51.8339 90.1968 51.9652 88.5093C52.0777 87.0375 52.5652 85.2562 51.7683 83.8875C50.7089 82.05 46.4714 82.275 44.6808 82.0406ZM113.587 79.2187C113.409 79.2187 113.25 79.2281 113.109 79.2375C107.371 79.875 101.615 80.9437 95.9058 81.7875C91.9683 82.3687 88.162 83.3625 84.1683 83.6062C82.8464 83.6812 79.7433 84.3093 78.8902 82.9687C78.0652 81.6656 78.2995 78.8718 78.0652 77.3437C77.9152 76.35 78.1589 75.0562 77.4933 74.2125C76.987 73.575 76.0495 73.2562 75.2527 73.5187C71.962 74.5781 69.187 79.1343 67.1339 81.7031C64.1714 85.4156 61.3683 89.2687 59.0058 93.3937C56.9339 97.0125 63.562 102.319 65.8214 104.475C68.3714 106.903 71.0714 109.162 73.7433 111.45C74.4183 112.022 75.0933 112.603 75.7683 113.184C76.2558 113.616 76.6683 114.075 77.3152 114.216C78.6277 114.478 79.7339 114.309 80.0339 112.791C80.3433 111.187 80.4652 109.687 80.3245 108.075C80.2214 106.931 79.9589 105.394 81.1402 104.7C82.4714 103.931 84.0089 103.987 85.462 103.716C90.6839 102.703 96.0839 102.975 101.334 102.037C105.478 101.297 107.109 96.0093 108.946 92.8125C110.69 89.7843 112.781 86.8125 114.168 83.6062C114.59 82.6406 115.153 81.7218 115.425 80.6906C115.528 80.2968 115.678 79.95 115.368 79.65C115.003 79.3031 114.206 79.2093 113.587 79.2187Z" fill="#757F3F"/>
<path d="M116.616 66.0749C116.485 65.7374 116.354 65.4374 116.241 65.1561C114.788 61.603 113.41 58.0218 111.929 54.478C111 52.2561 109.969 50.0155 108.507 48.0843C107.963 47.3624 107.147 47.0905 106.294 46.9218C105.488 46.7718 104.794 46.9311 103.988 47.203C102.479 47.7186 100.932 48.2436 99.4504 48.853C95.3535 50.503 91.0785 52.0405 87.1879 54.1217C86.1566 54.6749 84.9566 55.3124 84.9191 56.6249C84.816 59.8968 86.6816 62.4374 87.6566 65.428C88.0504 66.6561 88.5754 67.8561 89.1754 68.9905C90.4879 71.4842 91.8191 73.9874 93.1973 76.4624C93.8441 77.6155 94.5285 78.2624 95.766 78.6092C96.6191 78.8624 97.4254 78.6186 98.3066 78.5155C101.279 78.1499 104.072 77.2405 106.969 76.528C110.222 75.7124 113.691 74.7655 116.475 72.8155C118.491 71.3717 117.469 68.2124 116.616 66.0749Z" fill="#757F3F"/>
</svg>

<svg xmlns="http://www.w3.org/2000/svg" fill="none" aria-hidden="true" data-slot="icon" viewBox="0 0 120 120"><path fill="#757F3F" d="M52.313 8.794c.703.872 1.566 1.687 2.297 2.55a84 84 0 0 1 3.281 4.068c2.438 3.197 5.025 6.263 7.64 9.31 1.894 2.212 3.929 4.247 5.879 6.403.993 1.097 2.484 2.644 2.297 4.266-.113.909-.947 1.406-1.566 1.996-.881.825-1.856 1.472-2.616 2.42-.768.974-2.043 1.762-2.315 3.046-.244 1.125 1.125 2.072 2.081 2.362.853.263 1.763.507 2.644.675 6.047 1.126 12.525 1.529 18.675 1.575 1.772.01 3.59.207 5.24-.58.91-.432 1.904-1.313 2.072-2.363.91-5.71 2.447-11.456 3.244-17.128.225-1.575.75-3.535.206-5.091-.665-1.875-2.822-1.444-4.275-.89-.731.28-1.415.684-2.1 1.05-.61.328-1.237.88-1.894 1.068-1.359.413-2.54-.834-3.318-1.762-1.285-1.52-2.372-3.282-3.488-4.941-2.372-3.525-4.734-7.275-7.818-10.219-.497-.478-1.182-.515-1.829-.656-1.847-.394-3.768-.234-5.634-.234h-10.06c-1.584 0-3.234-.094-4.78.075-1.079.112-2.86-.113-3.75.637-.638.544-.648 1.678-.15 2.306 0 .02.018.038.037.057"/><path fill="#757F3F" d="M55.547 18.487c-2.681-2.906-5.531-5.615-8.653-8.034-1.163-.9-1.763-1.669-3.375-1.65-1.753.038-3.131 1.669-4.2 3.178-2.503 3.497-4.828 7.116-7.219 10.688-1.631 2.437-4.434 5.372-4.181 8.522.234 2.83 4.828 5.475 6.834 7.03 3.197 2.485 6.506 4.857 10.05 6.816 1.106.62 2.39-.037 3.206-.825 2.832-2.728 5.035-6.018 7.285-9.215 1.725-2.475 5.465-5.766 5.625-8.906.14-2.841-3.61-5.691-5.372-7.604M29.559 66.103c2.128-2.137 6.985 3.263 9.92 1.19 2.25-1.574.008-5.943-.666-7.818-1.36-3.806-2.766-7.594-4.557-11.213-1.547-3.121-3.825-8.306-7.978-8.315-2.812 0-5.39 1.369-8.044 2.072-4.49 1.19-8.971 2.662-13.03 4.978-.61.337-1.163.787-1.435 1.453-.535 1.312.89 2.7 1.781 3.412.928.75 2.025 1.397 3.066 1.988.806.469 1.64.89 1.678 1.96.047 1.096-.713 2.456-1.266 3.384-.91 1.5-1.547 3.122-2.175 4.734-1.284 3.347-3.328 6.497-4.256 9.975-1.022 3.788 1.753 7.172 3.478 10.303 2.025 3.694 3.91 7.5 6.422 10.903.722.975 1.622 2.56 2.681 3.282.534.365 1.163-.441 1.706-1.5.638-1.229 1.163-2.775 1.303-3.075 2.7-6.17 4.594-12.657 7.435-18.76 1.275-2.775 1.744-6.75 3.937-8.953"/><path fill="#757F3F" d="M44.68 82.04c-4.04-.543-8.09-.9-12.14-1.312-1.162-.122-3.047-.61-4.153-.234-1.144.394-1.631 1.444-2.231 2.41-1.19 1.95-1.819 4.265-2.672 6.44a46.4 46.4 0 0 0-2.428 8.512c-.263 1.435-.431 2.86-.572 4.303-.122 1.21-.178 2.222.797 3.188 1.022.994 3.16 1.219 4.987 1.322 5.475.3 10.96.618 16.444.806 1.95.056 4.219.487 5.962-.609.957-.61 1.06-2.129 1.266-3.132.656-3.356 1.153-6.75 1.538-10.153.187-1.687.356-3.384.487-5.072.113-1.472.6-3.253-.197-4.621-1.06-1.838-5.297-1.613-7.087-1.847m68.907-2.821c-.178 0-.337.01-.478.019-5.738.637-11.494 1.706-17.203 2.55-3.938.58-7.744 1.575-11.738 1.818-1.322.075-4.425.703-5.278-.637-.825-1.303-.59-4.097-.825-5.625-.15-.994.094-2.288-.572-3.131-.506-.638-1.444-.957-2.24-.694-3.291 1.06-6.066 5.615-8.12 8.184-2.962 3.713-5.765 7.566-8.127 11.69-2.072 3.62 4.556 8.926 6.815 11.082 2.55 2.428 5.25 4.687 7.922 6.975.675.572 1.35 1.153 2.025 1.734.488.432.9.891 1.547 1.032 1.313.262 2.419.093 2.719-1.425.31-1.604.431-3.104.29-4.716-.103-1.144-.365-2.681.816-3.375 1.331-.769 2.869-.713 4.322-.984 5.222-1.013 10.622-.741 15.872-1.679 4.144-.74 5.775-6.028 7.612-9.225 1.744-3.028 3.835-6 5.222-9.206.422-.965.985-1.884 1.257-2.915.103-.394.253-.741-.057-1.041-.365-.347-1.162-.44-1.781-.431"/><path fill="#757F3F" d="M116.616 66.075c-.131-.338-.262-.638-.375-.919-1.453-3.553-2.831-7.134-4.312-10.678-.929-2.222-1.96-4.462-3.422-6.394-.544-.722-1.36-.994-2.213-1.162-.806-.15-1.5.01-2.306.281-1.509.516-3.056 1.04-4.538 1.65-4.097 1.65-8.371 3.188-12.262 5.269-1.031.553-2.231 1.19-2.269 2.503-.103 3.272 1.763 5.812 2.738 8.803a22 22 0 0 0 1.518 3.563 360 360 0 0 0 4.022 7.471c.647 1.153 1.331 1.8 2.569 2.147.853.253 1.66.01 2.54-.093 2.973-.366 5.766-1.276 8.663-1.988 3.253-.816 6.722-1.763 9.506-3.713 2.016-1.443.994-4.603.141-6.74"/></svg>
